X: 011
T: Bonaparte in a Knapsack
%R: jig
B: Thompson's Twenty four Country Dances (for the Year 1804) p.2 #1
S: http://folkopedia.efdss.org/images/2/28/Thompson24_1804.PDF  2014-8-2
Z: 2014 John Chambers <jc:trillian.mit.edu>
N: Corrected the notation for the triplet pickup notes.
M: 6/8
L: 1/8
K: F
(3c/d/e/ |\
f2c AcA | B2d G2B | A2A AGF | E2G C2 (3c/d/e/ |\
f2c AcA | B2d G2B | Aaf ece | f3 F2 :|
|: f/g/ |\
a2f fef | g2e ede | f2d dcd | e2A A2A |\
B2g BAG | A2f AGF | d2g ede | f2a f2 :|
% - - - - - - - - - - - - - - - - - - - - - - - - -
%%begintext align
%% The 1st Lady turn the 2d Gent: at the same time
%% the 1st Gent: turn the 2d Lady & turn your partner
%% lead down the middle up again & cast off hands
%% 4 at bottom Right and left at top.
%%endtext
% - - - - - - - - - - - - - - - - - - - - - - - - -
